X: 344
T: A Shepherd's Dream
R: reel
M: 4/4
K: Amajor
AEAc BEBd|cAcf e3f|=gfed ceAc|BEGB AdcB||
~A3c ~B3d|cAcf e3f|=gfed ceAc|BE{A}G_B A2 AE||
AEAc BEBd|cAcf e3f|=gfed ceAc|BEGB AdcB||
AGAc B^ABd|c=c^cf e3f|=gfed ceAc|BEGB A2 B/c/d||
efed cEAc|BEGB ABcd|e3d cEAc|BEGB A2 B/c/d||
efed ceAc|BEGB ABcd|e^de=d ceAc|BEGB A2 AG||
ABcd e^def|=gfe^d edef|=gfed ceAc|BEGB AdcB||
ABcd e^def|=gfe^d edef|=gfed ceAc|BEGB A4||
e3 e3 (3^def|e3 e3 (3^def|e2 (3^def e2 (3^def|e2 (3^def e2 (3^def||
=gfe^d eAce|^defd eA (3 def|=gfe^d eAce|^defd e2 a2||
=gfe^d eAce|^defd eAce|=gfe^d eAce|^defd e2 e=d||
c~e3 ^defd|ed{_e}dc {_d}cB{c}BA|c~e3 ^defg|ag=gf =f{_g}=fe^d||
c2 (3efe ^defd|ed{_e}dc {_d}cB{c}BA|{_B}AE=BE cEdE|(3cdc (3BcB A2 A2||
c2 (3efe ^defd|ed{_e}dc {_d}cB{c}BA|{_B}AE=BE cEdE|(3cdc (3BcB A2 A2||
A3c ~B3d|c^Bcf e3f|=gfed ceAc|BEGB AdcB||
AGAc ~B3d|c^Bcf e3f|=gfed ceAc|BEGB A2 AA,||
AA,AA, BA,BA,|cA,cA, eA,eA,|=gfed ceAc|BAGB AcB2||
A3c B^ABd|{d}cBAf e3f|=gfed (3cdc Ac|BEGB A2 B/c/d||
e3d cBAc|BAGB ABcd|{f}e^de=d ecAc|BAGB Aagf||
(3efe ^de ceAc|BEGB ABcd|{f}e^de=d ceAc|BEGB A2 AG||
ABcd e^def|=gfe^d edef|=gfed ceAc|BEGB AdcB||
ABcd e^def|=gfe^d edef|=gfed ceAc|BEGB A4||
a3 a3 (3^gab|a3 a3 (3^gab|a2 (3^gab a2 (3^gab|a2 (3^gab a2 ef||
=gfe^d eAce|^defd eA (3 def|=gfe^d eAce|^defd e2 a2||
=gfe^d eAce|^defd eAce|=gfe^d eAce|^defd e2 e=d||
c~e3 ^defd|ed{_e}dc {_d}cB{c}BA|c2 (3efe ^defg|ag=gf =f{_g}=fe^d||
c2 (3efe ^defd|ed{_e}dc {_d}cB{c}BA|{_B}AE=BE cEdE|(3cdc (3BcB A2 A2||
c2 (3efe ^defd|ed{_e}dc {_d}cB{c}BA|{_B}AE=BE cEdE|(3cdc (3BcB A2 A2||

